Newaita/actions/22/gnumeric-font.svg

<svg height="22" viewBox="0 0 22 22" width="22" xmlns="http://www.w3.org/2000/svg"><path d="m10.914062 2.902344c-3.527343 0-6.367187 2.839844-6.367187 6.367187v10.003907h1.820313v-5.457032h9.097656v5.457032h1.816406v-10.003907c0-3.527343-2.839844-6.367187-6.367188-6.367187zm0 1.816406c2.519532 0 4.550782 2.03125 4.550782 4.550781v2.726563h-9.097656v-2.726563c0-2.519531 2.027343-4.550781 4.546874-4.550781zm0 0" fill="#424242"/></svg>

<?xml version="1.0" encoding="UTF-8"?>
<svg xmlns="http://www.w3.org/2000/svg" xmlns:xlink="http://www.w3.org/1999/xlink" width="22px" height="22px" viewBox="0 0 22 22" version="1.1">
<g id="surface1">
<path style=" stroke:none;fill-rule:nonzero;fill:rgb(25.882354%,25.882354%,25.882354%);fill-opacity:1;" d="M 10.914062 2.902344 C 7.386719 2.902344 4.546875 5.742188 4.546875 9.269531 L 4.546875 19.273438 L 6.367188 19.273438 L 6.367188 13.816406 L 15.464844 13.816406 L 15.464844 19.273438 L 17.28125 19.273438 L 17.28125 9.269531 C 17.28125 5.742188 14.441406 2.902344 10.914062 2.902344 Z M 10.914062 4.71875 C 13.433594 4.71875 15.464844 6.75 15.464844 9.269531 L 15.464844 11.996094 L 6.367188 11.996094 L 6.367188 9.269531 C 6.367188 6.75 8.394531 4.71875 10.914062 4.71875 Z M 10.914062 4.71875 "/>
</g>
</svg>
